icons/a-b.svg

<svg xmlns="http://www.w3.org/2000/svg" width="24" height="24" fill="none"><g clip-path="url(#a)"><path fill="#121212" d="M5 15V17C5 18.054 5.95 19 7 19H10V21H7C5.93913 21 4.92172 20.5786 4.17157 19.8284C3.42143 19.0783 3 18.0609 3 17V15H5ZM18 10L22.4 21H20.245L19.044 18H14.954L13.755 21H11.601L16 10H18ZM17 12.885L15.753 16H18.245L17 12.885ZM3 3H9C9.57904 3.00021 10.1456 3.16798 10.6314 3.48307C11.1172 3.79817 11.5015 4.24711 11.7378 4.77574C11.9741 5.30437 12.0523 5.89009 11.9631 6.46221C11.8739 7.03433 11.621 7.56841 11.235 8C11.621 8.43159 11.8739 8.96567 11.9631 9.53779C12.0523 10.1099 11.9741 10.6956 11.7378 11.2243C11.5015 11.7529 11.1172 12.2018 10.6314 12.5169C10.1456 12.832 9.57904 12.9998 9 13H3V3ZM9 9H5V11H9C9.26522 11 9.51957 10.8946 9.70711 10.7071C9.89464 10.5196 10 10.2652 10 10C10 9.73478 9.89464 9.48043 9.70711 9.29289C9.51957 9.10536 9.26522 9 9 9ZM17 3C18.0609 3 19.0783 3.42143 19.8284 4.17157C20.5786 4.92172 21 5.93913 21 7V9H19V7C19 6.46957 18.7893 5.96086 18.4142 5.58579C18.0391 5.21071 17.5304 5 17 5H14V3H17ZM9 5H5V7H9C9.26522 7 9.51957 6.89464 9.70711 6.70711C9.89464 6.51957 10 6.26522 10 6C10 5.73478 9.89464 5.48043 9.70711 5.29289C9.51957 5.10536 9.26522 5 9 5Z"/></g><defs><clipPath id="a"><rect width="24" height="24" fill="white"/></clipPath></defs></svg>

<svg width="24" height="24" fill="none" xmlns="http://www.w3.org/2000/svg"><g clip-path="url(#a)"><path d="M5 15v2c0 1.054.95 2 2 2h3v2H7a4 4 0 0 1-4-4v-2h2Zm13-5 4.4 11h-2.155l-1.201-3h-4.09l-1.199 3h-2.154L16 10h2Zm-1 2.885L15.753 16h2.492L17 12.885ZM3 3h6a3 3 0 0 1 2.235 5A3 3 0 0 1 9 13H3V3Zm6 6H5v2h4a1 1 0 0 0 0-2Zm8-6a4 4 0 0 1 4 4v2h-2V7a2 2 0 0 0-2-2h-3V3h3ZM9 5H5v2h4a1 1 0 0 0 0-2Z" /></g><defs><clipPath id="a"><path fill="#fff" d="M0 0h24v24H0z"/></clipPath></defs></svg>
